!!!OTL: Auf dem Wasser.
!!!OTL-incipit: MITTEN IM SCHIMMER DER SPIEGELNDEN WELLEN
!!!COM: E. Kunzen
!!!ARE: Europa, Mitteleuropa, Deutschland
!!!SCT: F0801
!!!TXL: @@DE
!!!YEM: Copyright 1995, estate of Helmut Schaffrath.
**kern	**text
*ICvox	*
*clefG2	*
*M6/8	*
*k[f#c#g#]	*
*A:	*
!LO:TX:a:t=Nach dem Ruderſchlage.	!
!LO:TX:a:t=P:only the highest voice encoded:problem	!
{8.a	Mit-
16g#	-ten
8f#	im
=1	=1
8e	Schimmer
8c#	.
8e	der
8.a	ſpiegeln-
16g#	.
8f#	-den
=2	=2
4e	Wellen
8c#}	.
{8.cc#	glei-
16ee	-tet
8cc#	wie
=3	=3
8b/	Schwäne
8a	.
8g#	der
8a	wanken-
8g#	.
8f#	-de
=4	=4
4g#	Kahn;
8r}	.
{8.a	Ach,
16g#	auf
8f#	der
=5	=5
8e	Freude
8c#	.
8e	ſanft
8.a	ſchimmernden
16g#	.
8f#	.
=6	=6
4e	Wel-
8c#}	-len
{8.cc#	glei-
16ee	-tet
8cc#	die
=7	=7
8b/	See-
8a	-le
8g#	da-
8a	-hin
8g#	wie
8f#	der
=8	=8
4g#	Kahn;
8r}	.
{8b/	Denn
8cc#/	von
8dd/	dem
=9	=9
8.ee	Himmel
16dd	.
8cc#	her-
8ee	-ab
8dd	auf
8cc#	die
=10	=10
4b/	Wellen
8e}	.
{8a	tan-
8dd/	-ʒet
8ff#	das
=11	=11
8.ee	A-
16dd	-bendroth
8cc#	.
8b/	rund
8a	um
8g#	den
=12	=12
4a	Kahn.
8r}	.
==	==
!!!AGN: Geselligkeits -, Moral - Lied
!!!ONB: ESAC (Essen Associative Code) Database: FINK
!!!AMT: compound duple
!!!AIN: vox
!!!EED: Helmut Schaffrath
!!!EEV: 1.0
!!Text: L. Graf von Stolberg
!!!GTL: Liedertafel- und Gesellschaftslieder
!!!source: Musikalischer Hausschatz der Deutschen. Eine Sammlung von über 1000 Liedern und Gesängen mit Singstimmen und Klavierbegleitung. Leipzig, Litterarisches Verlags-Haus.
!!!page: 554
!!!URL-scan: https://www.digitale-sammlungen.de/en/view/bsb11144622?page=504
!!!ENC: Anna Maria Matuszewska
!!!EEV: 2024/08/06
*-	*-